X: 1654
T: Kreuz Polka
B: australian traditional tunes wiki
M:2/4
L:1/16
R: Polka
Q: 1/4=100
K:G
V:1 
|"G"D2D2 E2D2|.G4 .G4|D2D2 E2D2|"D7" .F4 .F4|A2A2 A2G2|G2F2F4|F2F2 F2E2|E2D2D4||
"G"D2D2 E2D2|.G4 .G4|D2D2 E2D2|"D7" .F4 .F4|A2A2 A2G2|G2F2 F2E2|D2D2 E2F2|"G".G4 .G4 ||
% abcbook-tune_id 6342d53acfc1d61be8005c0f


% abcbook-boost 0
% abcbook-tablature 
% abcbook-transpose 
% abcbook-lastupdated 1665324376263
% abcbook-soundfonts 
% abcbook-repeats 1
% NFF Book 2009

